X:405
T:Silver Bell
C:Traditional
N:Transcribed by Jim Coon
R:bluegrass
L:1/8
Q:1/4=120
M:2/4
K:G
zB c^c |: dd/B/ cc/A/ | BB/G/ A/B/A/F/ | GB D2 | zB AG | FA D2 | zc BA |1 GB d2 | 
zB c^c :|2 G3F | =FE F^F | 
K:C
|: G3/2G/ ^FG | A2 f2 | e3/2e/ ec | G2 e2 | d3/2d/ dB |1 G2 f2 | e3/2e/ ec | GE F^F :|2 GB dB | 
c4 | "D"zB c^c | z4 | z4 | z4 | z4 | z4 | z4 | z4 | z4 | z4 | z4 | z4 | z4 | z4 | 
z4 | 


